html/sfe/assets-icons/raw/pattern.svg

<?xml version="1.0" encoding="UTF-8" standalone="no"?>
<svg width="155px" height="186px" viewBox="0 0 155 186" version="1.1" xmlns="http://www.w3.org/2000/svg" xmlns:xlink="http://www.w3.org/1999/xlink">
    <!-- Generator: Sketch 3.6.1 (26313) - http://www.bohemiancoding.com/sketch -->
    <title>pattern</title>
    <desc>Created with Sketch.</desc>
    <defs></defs>
    <g id="Page-1" stroke="none" stroke-width="1" fill="none" fill-rule="evenodd">
        <g id="pattern">
            <rect id="Rectangle-80" fill="#5678BE" x="0" y="0" width="155" height="187"></rect>
            <path d="M25.3246753,77.3909532 L25.3246753,108.630697 L51.1164396,92.9946098 L25.3246753,77.3909532" id="Fill-12-Copy-38" fill="#5070B9"></path>
            <path d="M25.3246753,46.357566 L25.3246753,77.59731 L51.1164396,61.9612226 L25.3246753,46.357566" id="Fill-12-Copy-39" fill="#5070B9"></path>
            <path d="M25.3246753,15.3241788 L25.3246753,46.5639228 L51.1164396,30.9278354 L25.3246753,15.3241788" id="Fill-12-Copy-40" fill="#5070B9"></path>
            <path d="M25.3246753,15.9480231 L51.1746032,-0.691976052 L25.3246753,-0.691976306 L25.3246753,15.9480231 L25.3246753,15.9480231 Z" id="Fill-12-Copy-41" fill="#5070B9"></path>
            <path d="M25.3246753,139.457728 L25.3246753,170.697471 L51.1164396,155.061384 L25.3246753,139.457728" id="Fill-12-Copy-42" fill="#5070B9"></path>
            <path d="M25.3246753,186.094771 L51.1164396,186.094771 L25.3246753,170.491115 L25.3246753,186.094771 L25.3246753,186.094771 Z" id="Fill-12-Copy-43" fill="#5070B9"></path>
            <path d="M25.3246753,108.42434 L25.3246753,139.664084 L51.1164396,124.027996 L25.3246753,108.42434" id="Fill-12-Copy-44" fill="#5070B9"></path>
            <path d="M0,62 L0,93.2061348 L26.1056855,77.5868695 L0,62" id="Fill-12-Copy-29" fill="#5070B9"></path>
            <path d="M0,31 L0,62.2061348 L26.1056855,46.5868695 L0,31" id="Fill-12-Copy-30" fill="#5070B9"></path>
            <path d="M0,0 L0,31.2061348 L26.1056855,15.5868695 L0,0" id="Fill-12-Copy-33" fill="#5070B9"></path>
            <path d="M0,93 L0,124.206135 L26.1056855,108.58687 L0,93" id="Fill-12-Copy-34" fill="#5070B9"></path>
            <path d="M0,124 L0,155.206134 L26.1056855,139.586869 L0,124" id="Fill-12-Copy-45" fill="#5070B9"></path>
            <path d="M0,155 L0,186.206135 L26.1056855,170.58687 L0,155" id="Fill-12-Copy-46" fill="#5070B9"></path>
            <path d="M51,62 L51,93.2061348 L77.1056855,77.5868695 L51,62" id="Fill-12-Copy-47" fill="#5070B9"></path>
            <path d="M51,31 L51,62.2061348 L77.1056855,46.5868695 L51,31" id="Fill-12-Copy-48" fill="#5070B9"></path>
            <path d="M51,0 L51,31.5 L77.1056855,15.7336496 L51,0" id="Fill-12-Copy-49" fill="#5070B9"></path>
            <path d="M51,93 L51,124.206135 L77.1056855,108.58687 L51,93" id="Fill-12-Copy-50" fill="#5070B9"></path>
            <path d="M51,124 L51,155.206134 L77.1056855,139.586869 L51,124" id="Fill-12-Copy-51" fill="#5070B9"></path>
            <path d="M51,155 L51,186.206135 L77.1056855,170.58687 L51,155" id="Fill-12-Copy-52" fill="#5070B9"></path>
            <g id="Group" transform="translate(77.000000, -1.000000)" fill="#5070B9">
                <g transform="translate(26.000000, 0.000000)">
                    <path d="M0,62.6666761 L0,94.205674 L26.1056855,78.4198044 L0,62.6666761" id="Fill-12-Copy-47"></path>
                    <path d="M0,31.3360118 L0,62.8750097 L26.1056855,47.08914 L0,31.3360118" id="Fill-12-Copy-48"></path>
                    <path d="M0,0.00534744228 L0,31.5443453 L26.1056855,15.7584757 L0,0.00534744228" id="Fill-12-Copy-49"></path>
                    <path d="M0,93.9973404 L0,125.536338 L26.1056855,109.750469 L0,93.9973404" id="Fill-12-Copy-50"></path>
                    <path d="M0,125.328005 L0,156.867002 L26.1056855,141.081133 L0,125.328005" id="Fill-12-Copy-51"></path>
                    <path d="M0,156.658669 L0,188.197667 L26.1056855,172.411798 L0,156.658669" id="Fill-12-Copy-52"></path>
                </g>
                <path d="M0,78.4148936 L0,109.820806 L26.1056855,94.1015484 L0,78.4148936" id="Fill-12-Copy-38"></path>
                <path d="M0,47.25 L0,78.6559128 L26.1056855,62.9366548 L0,47.25" id="Fill-12-Copy-39"></path>
                <path d="M0,16.0851064 L0,47.4910192 L26.1056855,31.7717612 L0,16.0851064" id="Fill-12-Copy-40"></path>
                <path d="M0,16.72851 L26.1056855,2.54902215e-07 L0,0 L0,16.72851 L0,16.72851 Z" id="Fill-12-Copy-41"></path>
                <path d="M0,140.744681 L0,172.150593 L26.1056855,156.431335 L0,140.744681" id="Fill-12-Copy-42"></path>
                <path d="M0,187.596229 L26.1056855,187.596229 L0,171.909574 L0,187.596229 L0,187.596229 Z" id="Fill-12-Copy-43"></path>
                <path d="M0,109.579787 L0,140.985699 L26.1056855,125.266442 L0,109.579787" id="Fill-12-Copy-44"></path>
                <path d="M52,78.4148936 L52,109.820806 L78.1056855,94.1015484 L52,78.4148936" id="Fill-12-Copy-38"></path>
                <path d="M52,47.25 L52,78.6559128 L78.1056855,62.9366548 L52,47.25" id="Fill-12-Copy-39"></path>
                <path d="M52,16.0851064 L52,47.4910192 L78.1056855,31.7717612 L52,16.0851064" id="Fill-12-Copy-40"></path>
                <path d="M52,16.72851 L78.1056855,2.54902215e-07 L52,0 L52,16.72851 L52,16.72851 Z" id="Fill-12-Copy-41"></path>
                <path d="M52,140.744681 L52,172.150593 L78.1056855,156.431335 L52,140.744681" id="Fill-12-Copy-42"></path>
                <path d="M52,187.596229 L78.1056855,187.596229 L52,171.909574 L52,187.596229 L52,187.596229 Z" id="Fill-12-Copy-43"></path>
                <path d="M52,109.579787 L52,140.985699 L78.1056855,125.266442 L52,109.579787" id="Fill-12-Copy-44"></path>
            </g>
        </g>
    </g>
</svg>

<?xml version="1.0" encoding="utf-8"?>
<!-- Generator: Adobe Illustrator 16.0.4, SVG Export Plug-In . SVG Version: 6.00 Build 0)  -->
<!DOCTYPE svg PUBLIC "-//W3C//DTD SVG 1.1//EN" "http://www.w3.org/Graphics/SVG/1.1/DTD/svg11.dtd">
<svg version="1.1" id="Layer_1" xmlns="http://www.w3.org/2000/svg" xmlns:xlink="http://www.w3.org/1999/xlink" x="0px" y="0px"
	 width="155px" height="186px" viewBox="0 0 155 186" enable-background="new 0 0 155 186" xml:space="preserve">
<title>pattern</title>
<desc>Created with Sketch.</desc>
<g id="Page-1">
	<g id="pattern">
		<rect id="Rectangle-80" fill="#FFFFFF" width="155" height="187"/>
		<path id="Fill-12-Copy-38" fill="#F3F3F3" d="M25.325,77.391v31.24l25.792-15.636L25.325,77.391"/>
		<path id="Fill-12-Copy-39" fill="#F3F3F3" d="M25.325,46.357v31.24l25.792-15.636L25.325,46.357"/>
		<path id="Fill-12-Copy-40" fill="#F3F3F3" d="M25.325,15.324v31.24l25.792-15.636L25.325,15.324"/>
		<path id="Fill-12-Copy-41" fill="#F3F3F3" d="M25.325,15.948l25.85-16.64h-25.85V15.948L25.325,15.948z"/>
		<path id="Fill-12-Copy-42" fill="#F3F3F3" d="M25.325,139.457v31.24l25.792-15.636L25.325,139.457"/>
		<path id="Fill-12-Copy-43" fill="#F3F3F3" d="M25.325,186.095h25.792l-25.792-15.604V186.095L25.325,186.095z"/>
		<path id="Fill-12-Copy-44" fill="#F3F3F3" d="M25.325,108.424v31.24l25.792-15.637L25.325,108.424"/>
		<path id="Fill-12-Copy-29" fill="#F3F3F3" d="M0,62v31.206l26.105-15.619L0,62"/>
		<path id="Fill-12-Copy-30" fill="#F3F3F3" d="M0,31v31.206l26.105-15.619L0,31"/>
		<path id="Fill-12-Copy-33" fill="#F3F3F3" d="M0,0v31.206l26.105-15.619L0,0"/>
		<path id="Fill-12-Copy-34" fill="#F3F3F3" d="M0,93v31.206l26.105-15.619L0,93"/>
		<path id="Fill-12-Copy-45" fill="#F3F3F3" d="M0,124v31.206l26.105-15.619L0,124"/>
		<path id="Fill-12-Copy-46" fill="#F3F3F3" d="M0,155v31.206l26.105-15.619L0,155"/>
		<path id="Fill-12-Copy-47" fill="#F3F3F3" d="M51,62v31.206l26.105-15.619L51,62"/>
		<path id="Fill-12-Copy-48" fill="#F3F3F3" d="M51,31v31.206l26.105-15.619L51,31"/>
		<path id="Fill-12-Copy-49" fill="#F3F3F3" d="M51,0v31.5l26.105-15.766L51,0"/>
		<path id="Fill-12-Copy-50" fill="#F3F3F3" d="M51,93v31.206l26.105-15.619L51,93"/>
		<path id="Fill-12-Copy-51" fill="#F3F3F3" d="M51,124v31.206l26.105-15.619L51,124"/>
		<path id="Fill-12-Copy-52" fill="#F3F3F3" d="M51,155v31.206l26.105-15.619L51,155"/>
		<g id="Group" transform="translate(77.000000, -1.000000)">
			<g transform="translate(26.000000, 0.000000)">
				<path id="Fill-12-Copy-47_1_" fill="#F3F3F3" d="M0,62.667v31.539L26.105,78.42L0,62.667"/>
				<path id="Fill-12-Copy-48_1_" fill="#F3F3F3" d="M0,31.336v31.539l26.105-15.786L0,31.336"/>
				<path id="Fill-12-Copy-49_1_" fill="#F3F3F3" d="M0,0.005v31.539l26.105-15.786L0,0.005"/>
				<path id="Fill-12-Copy-50_1_" fill="#F3F3F3" d="M0,93.998v31.539l26.105-15.786L0,93.998"/>
				<path id="Fill-12-Copy-51_1_" fill="#F3F3F3" d="M0,125.328v31.539l26.105-15.786L0,125.328"/>
				<path id="Fill-12-Copy-52_1_" fill="#F3F3F3" d="M0,156.658v31.539l26.105-15.785L0,156.658"/>
			</g>
			<path id="Fill-12-Copy-38_1_" fill="#F3F3F3" d="M0,78.415v31.405l26.105-15.719L0,78.415"/>
			<path id="Fill-12-Copy-39_1_" fill="#F3F3F3" d="M0,47.25v31.406l26.105-15.719L0,47.25"/>
			<path id="Fill-12-Copy-40_1_" fill="#F3F3F3" d="M0,16.085v31.406l26.105-15.719L0,16.085"/>
			<path id="Fill-12-Copy-41_1_" fill="#F3F3F3" d="M0,16.729L26.105,0H0V16.729L0,16.729z"/>
			<path id="Fill-12-Copy-42_1_" fill="#F3F3F3" d="M0,140.744v31.406l26.105-15.719L0,140.744"/>
			<path id="Fill-12-Copy-43_1_" fill="#F3F3F3" d="M0,187.596h26.105L0,171.91V187.596L0,187.596z"/>
			<path id="Fill-12-Copy-44_1_" fill="#F3F3F3" d="M0,109.58v31.406l26.105-15.72L0,109.58"/>
			<path id="Fill-12-Copy-38_2_" fill="#F3F3F3" d="M52,78.415v31.405l26.105-15.719L52,78.415"/>
			<path id="Fill-12-Copy-39_2_" fill="#F3F3F3" d="M52,47.25v31.406l26.105-15.719L52,47.25"/>
			<path id="Fill-12-Copy-40_2_" fill="#F3F3F3" d="M52,16.085v31.406l26.105-15.719L52,16.085"/>
			<path id="Fill-12-Copy-41_2_" fill="#F3F3F3" d="M52,16.729L78.105,0H52V16.729L52,16.729z"/>
			<path id="Fill-12-Copy-42_2_" fill="#F3F3F3" d="M52,140.744v31.406l26.105-15.719L52,140.744"/>
			<path id="Fill-12-Copy-43_2_" fill="#F3F3F3" d="M52,187.596h26.105L52,171.91V187.596L52,187.596z"/>
			<path id="Fill-12-Copy-44_2_" fill="#F3F3F3" d="M52,109.58v31.406l26.105-15.72L52,109.58"/>
		</g>
	</g>
</g>
</svg>
